!! 00000] TT[WS
!!!OTL: Buoli gechuang shobushang hua
!!!ARE: Asia, China, Shanxi Hequ
!! Ethnic Group: Han
!! WII, 22 (1)
!!!SCT: J0427
!!!YEM: Copyright 1995, estate of Helmut Schaffrath.
**kern
*ICvox
*Ivox
*M2/4
*k[b-e-]
*B-:
{8.ccc
16ccc
4ccc
=1
8ddd
8ddd
8ccc
8fff
=2
8bb-
8gg
8ff
8dd
=3
2cc}
=4
{8.ccc
16ccc
4ccc
=5
8ddd
8ddd
8ccc
8fff
=6
8bb-
8gg
8ff
8gg
=7
2ff}
==
!!!AGN: Shange, Shanqu. Qingge
!!!ONB: ESAC (Essen Associative Code) Database: CHINA
!!!AMT: simple duple
!!!AIN: vox
!!!EED: Helmut Schaffrath
!!!EEV: 1.0
*-
